src/assets/logo.svg

<svg width="65" height="65" viewBox="0 0 65 65" fill="none" xmlns="http://www.w3.org/2000/svg">
  <g clip-path="url(#clip0_2_24)">
    <path d="M54.0854 17.4146L32.5 5.41667L10.9146 17.4146L24.6458 25.025C26.6229 22.9667 29.4125 21.6667 32.5 21.6667C35.5875 21.6667 38.3771 22.9667 40.3542 25.025L54.0854 17.4146ZM27.0833 32.5C27.0833 29.5208 29.5208 27.0833 32.5 27.0833C35.4792 27.0833 37.9167 29.5208 37.9167 32.5C37.9167 35.4792 35.4792 37.9167 32.5 37.9167C29.5208 37.9167 27.0833 35.4792 27.0833 32.5ZM29.7917 58.0667L8.125 46.0417V22.0458L22.0188 29.7646C21.775 30.6313 21.6667 31.5521 21.6667 32.5C21.6667 37.5375 25.1062 41.7896 29.7917 42.9813V58.0667ZM35.2083 58.0667V42.9813C39.8937 41.7896 43.3333 37.5375 43.3333 32.5C43.3333 31.5521 43.225 30.6313 42.9812 29.7646L56.875 22.0458V46.0417L35.2083 58.0667Z" fill="#443B3B"/>
  </g>
  <defs>
    <clipPath id="clip0_2_24">
      <rect width="65" height="65" fill="white"/>
    </clipPath>
  </defs>
</svg>

<svg width="65" height="65" fill="none" xmlns="http://www.w3.org/2000/svg"><g clip-path="url(#a)"><path d="M54.085 17.415 32.5 5.417 10.915 17.415l13.73 7.61a10.876 10.876 0 0 1 7.855-3.358c3.087 0 5.877 1.3 7.854 3.358l13.731-7.61ZM27.083 32.5c0-2.98 2.438-5.417 5.417-5.417 2.98 0 5.417 2.438 5.417 5.417 0 2.98-2.438 5.417-5.417 5.417-2.98 0-5.417-2.438-5.417-5.417Zm2.709 25.567L8.125 46.042V22.046l13.894 7.719a10.1 10.1 0 0 0-.352 2.735c0 5.038 3.44 9.29 8.125 10.481v15.086Zm5.416 0V42.98A10.81 10.81 0 0 0 43.333 32.5a10.1 10.1 0 0 0-.352-2.735l13.894-7.72v23.997L35.208 58.067Z" fill="#443B3B"/></g><defs><clipPath id="a"><path fill="#fff" d="M0 0h65v65H0z"/></clipPath></defs></svg>
